X:731
T:Bonnie Tammy Scolla
B:Haand Me Doon da Fiddle
Z:Nigel Gatherer
L:1/4
M:4/4
K:A
A>B ce | fe c2 | BA  Bc | BA Bc  | 
A>B ce | fe c2 | e>c BA | A2 A2 ||
a>g fe | fe c2 | BA  Bc | BA Bc  | 
a>g fe | fe c2 | e>c BA | A2 A2 ||
